tests/fixtures/identity-1d.cube
TITLE "Identity 1D"
LUT_1D_SIZE 2
0.0 0.0 0.0
1.0 1.0 1.0
