tests/fixtures/named-cube-fixture.cube
LUT_1D_SIZE 2
0.0 0.0 0.0
1.0 1.0 1.0
