tests/fixtures/red-boost-1d.cube
TITLE "Red Boost 1D"
LUT_1D_SIZE 2
0.0 0.0 0.0
1.0 0.5 0.25
